static/images/mobile/copyright/wikipedia-tagline-hi.svg

<?xml version="1.0" encoding="UTF-8"?>
<svg width="108px" height="18px" viewBox="0 0 108 18" version="1.1" xmlns="http://www.w3.org/2000/svg" xmlns:xlink="http://www.w3.org/1999/xlink">
    <title>wikipedia-tagline-hi</title>
    <g id="Page-1" stroke="none" stroke-width="1" fill="none" fill-rule="evenodd">
        <path d="M96.7997124,5.36991046 L95.9161876,4.47992405 L98.1862839,4.47992405 C97.9154211,4.77229532 97.7283978,5.06895407 97.6252038,5.36991046 L96.7997124,5.36991046 Z M100.830437,7.98181605 C100.503674,8.24838119 100.058681,8.38166884 99.4954676,8.38165868 C99.0139191,8.33441517 98.6248256,8.1129498 98.3281668,7.71739464 C98.0486986,7.35195341 97.9089696,6.91986327 97.9089696,6.42111407 C97.9089696,5.88799394 98.0594478,5.4215024 98.3604143,5.02164961 C98.6871667,4.58311809 99.1085077,4.35954962 99.6244474,4.35094419 C100.316651,4.34281628 100.933621,4.8303388 101.475357,5.8148935 C101.69032,6.21044866 101.80855,6.70489007 101.830059,7.29819741 C101.830049,7.34554252 101.821931,7.51102687 101.804253,7.79478256 C101.722567,9.00293621 101.189427,10.0068455 100.204862,10.8065409 L101.933233,13.502286 L101.649467,13.7280083 L99.7598686,10.9935643 C99.4846981,11.1268519 99.1751464,11.1569455 98.8311934,11.0838857 C98.1217787,10.9291099 97.7670765,10.6045013 97.7670765,10.1100599 C97.7670765,9.58123738 97.9863474,9.26953183 98.424889,9.17493306 C98.7946381,9.17494322 98.9558756,9.1708691 98.9085813,9.16202999 C99.0934507,9.18783612 99.280474,9.29531764 99.4696513,9.48448471 C99.5083605,9.52319391 99.5717684,9.61132083 99.6599054,9.74889596 C99.7479917,9.88648124 99.792106,9.97247459 99.7921161,10.0068658 C100.48432,9.68441111 100.830427,9.0093979 100.830427,7.98183637 L100.830437,7.98181605 Z M99.4954676,4.84107781 C99.0440228,4.84920572 98.8183005,5.2237299 98.8183005,5.96322796 C98.8183005,6.28999047 98.8806822,6.61459909 99.0053238,6.93705381 C99.2331899,7.53038147 99.6201396,7.82703006 100.166173,7.82703006 C100.518721,7.75398042 100.695006,7.42718743 100.695006,6.84676283 C100.695006,6.34803395 100.615454,5.91594381 100.45639,5.55048226 C100.245715,5.06895407 99.9254038,4.83248254 99.4954676,4.84107781 L99.4954676,4.84107781 Z M101.726865,5.36991046 C101.550591,5.0259574 101.314119,4.72929865 101.01746,4.47992405 L106.724964,4.47992405 L107.621392,5.36991046 L105.396436,5.36991046 L105.396436,13.7280083 L104.338781,12.6445471 L104.338781,5.36991046 L101.726865,5.36991046 Z M93.5155367,5.37968428 L92.5331969,5.37968428 L91.623358,4.47543338 L95.9483437,4.47543338 L96.8515786,5.37968428 L94.5967832,5.37968428 L94.5967832,13.8718623 L93.5155367,12.7841339 L93.5155367,5.37968428 M94.2605516,4.47543338 C93.9133169,3.94249613 93.6342145,3.53623244 93.4232341,3.25665247 C92.548579,2.09029662 92.0431141,1.43286003 91.9068597,1.28432238 C91.1288963,0.42812778 90.4168503,0 89.7707521,0 C89.3048499,0 88.7620271,0.0917438442 88.1422837,0.275211213 L89.3421977,1.48743898 C89.7597591,1.42627642 90.0630421,1.39569514 90.2520365,1.39569514 C90.8629814,1.39571546 91.5574407,1.77138771 92.3354041,2.52274236 C92.9595467,3.1256 93.4693905,3.77649362 93.8649761,4.47543338 L94.2605516,4.47543338 M80.6723637,5.3797046 L79.7691288,4.4754537 L92.0913634,4.4754537 L92.9945983,5.3797046 L86.8961117,5.3797046 L86.8961117,7.90245711 C87.0279668,7.78452106 87.1246585,7.7036991 87.1862072,7.66001156 C87.3356389,7.55080286 87.4828761,7.47655435 87.6279289,7.4372254 C87.9268025,7.35432066 88.2059049,7.31272606 88.4652362,7.31272606 C89.1377095,7.31272606 89.6937097,7.54644426 90.1332572,8.01385019 C90.5727742,8.47690769 90.7925429,9.04698951 90.792553,9.7240855 C90.7925429,10.2657704 90.5991391,10.776874 90.2123723,11.2573964 C89.9222666,11.6286999 89.4673574,11.9388713 88.8476242,12.1878598 L88.3663398,11.2573964 C88.9904621,10.9690789 89.4080236,10.741924 89.619004,10.5759215 C90.0848961,10.2133555 90.3178523,9.81581918 90.3178624,9.38335313 C90.3178523,8.99457462 90.1354517,8.6429102 89.7706505,8.3283802 C89.5376842,8.13181672 89.1750674,8.0575479 88.6828002,8.10559404 C88.449844,8.12743781 88.1641478,8.28033406 87.8257217,8.56427262 C87.4916745,8.84385259 87.1817978,9.18676933 86.8961117,9.59302286 L86.8961117,13.8718826 L85.8016777,12.7710479 L85.8016777,10.864239 C85.6126834,11.0739189 85.3335809,11.2552019 84.9643805,11.4080981 C84.59517,11.5566256 84.2633275,11.6308944 83.968843,11.6308944 C83.331523,11.6308944 82.7865056,11.4146512 82.3337909,10.9821852 C81.8854653,10.5497191 81.6613075,10.0167717 81.6613075,9.38335313 C81.6613075,8.73683842 81.8744824,8.20389101 82.300822,7.78452106 C82.7271718,7.36078236 83.2655954,7.14891808 83.916103,7.14890792 C84.7424072,7.14891808 85.3709389,7.49838796 85.8016777,8.19732772 L85.8016777,8.59703828 C85.4148906,8.25630591 84.9709642,8.08593464 84.4699087,8.08592448 C83.8281894,8.08593464 83.331523,8.21044415 82.9798992,8.45942251 C82.4964102,8.80016504 82.2327,9.25448503 82.1887483,9.82237231 C82.1623325,10.1805899 82.2612899,10.4688972 82.4854273,10.6873146 C82.6700326,10.8620546 82.9249545,10.9494195 83.2502134,10.9494195 C83.7161055,10.9494195 84.25014,10.7135271 84.8522966,10.2417423 C85.4852174,9.74374489 85.8016777,9.26759129 85.8016777,8.81327131 L85.8016777,5.3797046 L80.6723637,5.3797046 M73.6441757,9.3571406 C73.3365036,8.97272068 73.1826726,8.64727895 73.1826726,8.38079509 C73.1826726,7.92212667 73.360674,7.66875923 73.716697,7.62069277 C73.716697,7.62070293 75.10781,7.62070293 77.8900361,7.62069277 L77.8900361,5.3797046 L72.1871351,5.3797046 L71.2839002,4.4754537 L80.2832804,4.4754537 L81.1865153,5.3797046 L78.9449074,5.3797046 L78.9449074,13.8718826 L77.8900361,12.8365691 L77.8900361,8.64945317 L75.1144038,8.64945317 L75.1144038,10.1172429 C75.0879881,10.3662416 75.0133128,10.5191379 74.8902461,10.5759215 C74.6968525,10.5584465 74.5408168,10.4754401 74.4221492,10.3269228 L73.6441757,9.3571406 M69.7675258,5.3797046 L68.7851758,5.3797046 L67.8753471,4.4754537 L72.2003226,4.4754537 L73.1035575,5.3797046 L70.8487722,5.3797046 L70.8487722,13.8718826 L69.7675258,12.7841542 L69.7675258,5.3797046 M66.3389883,5.3797046 L58.9878375,5.3797046 L58.078019,4.4754537 L65.4291596,4.4754537 L66.3389883,5.3797046 M65.415972,7.96798843 L62.1590554,7.96798843 C62.3612373,8.04225726 62.6974688,8.26067466 63.1677703,8.6232508 C63.6996002,9.02951449 64.0204598,9.35277184 64.1303492,9.59302286 C64.2138635,9.7721418 64.2556105,9.97745294 64.2556105,10.2089766 C64.2556105,10.6545591 64.0797936,11.0608126 63.7281799,11.4277575 C63.376546,11.7947024 62.9765713,12.0109456 62.5282558,12.0764668 L63.2139267,13.7211707 L62.8117575,14.1339774 L62.0140026,12.2337216 C61.8425849,12.2861466 61.6448022,12.3123592 61.4206445,12.3123592 C61.0338573,12.3123592 60.7042094,12.2031505 60.4317007,11.9847229 C60.1372161,11.7488305 59.9899688,11.4430481 59.9899688,11.0673556 C59.9899688,10.416462 60.3042346,10.0844773 60.9327663,10.0713608 C61.2448275,10.0622169 61.5107424,10.169607 61.7305111,10.392444 C61.8931303,10.5584363 62.000815,10.748467 62.0535652,10.9625156 C62.3084871,10.9625156 62.5304503,10.8620343 62.7194548,10.6610919 C62.9128383,10.4601495 63.0095401,10.2329946 63.0095401,9.97961699 C63.0095401,9.54279235 62.8798796,9.24355298 62.6205584,9.08191923 L60.0822714,7.48308716 L60.0822714,6.95887726 L65.415972,6.95887726 L65.415972,7.96797827 M65.415972,5.37969444 L64.6973424,5.37969444 L63.8007013,4.47544354 L67.9608528,4.47544354 L68.8640877,5.37969444 L66.6488549,5.37969444 L66.6488549,13.8718724 L65.415972,12.6465283 L65.415972,5.37969444 M44.9511411,8.551207 L44.9511411,13.8588068 L43.8567071,12.7645253 L43.8567071,8.46600612 L41.6942244,8.46600612 C41.1491969,8.46601628 40.718458,8.60143751 40.4020078,8.87227997 C40.0591724,9.16059745 39.8877546,9.57121973 39.8877546,10.1041671 C39.8877546,10.8249608 40.1514648,11.5129685 40.6789056,12.1682309 C40.6789056,12.1682309 41.175572,12.7361284 42.168915,13.8719131 L41.7337769,13.8719131 C40.9689909,13.3302383 40.3184935,12.7252065 39.7822644,12.0568378 C39.105392,11.2137393 38.7669456,10.4318034 38.7669557,9.71100971 C38.7669456,9.26980615 38.9559501,8.85480495 39.3339489,8.46600612 L38.3252239,8.46600612 L37.2439774,7.37828785 L43.8567071,7.37828785 L43.8567071,5.37973508 L37.2241961,5.37973508 L36.3143776,4.47548418 L51.0232526,4.47548418 L51.9264875,5.37973508 L44.9511411,5.37973508 L44.9511411,7.5027872 C45.2324279,7.48968093 45.5444992,7.48531218 45.8873448,7.48968093 C46.2477468,7.49374489 46.6938677,7.51589346 47.2257077,7.55521225 C47.9289451,7.71247725 48.4717679,7.989883 48.854166,8.38738886 C49.3728083,8.92907378 49.6321294,9.54939628 49.6321396,10.248336 C49.6321294,10.8205921 49.4277428,11.4671169 49.01899,12.1879005 C48.8211972,12.5330118 48.4607749,13.0877928 47.9377537,13.8522639 L46.9685811,12.9152371 C47.2982189,12.6706072 47.7355515,12.3036623 48.280579,11.8144024 C48.8211972,11.2115753 49.0915011,10.632756 49.0915113,10.0779648 C49.0915011,9.61928619 48.9091006,9.2326819 48.5442994,8.91816205 C48.1926655,8.61673831 47.6190785,8.44636705 46.8235384,8.40704826 C46.458717,8.38967484 45.8345845,8.43762954 44.9511411,8.55121716 M34.7254718,15.5689913 L33.9475083,14.7630272 C34.4353865,14.3873448 34.9606225,14.2125947 35.5232165,14.2388173 C35.9979172,14.2606611 36.3978919,14.4878059 36.7231406,14.9202821 C37.0220142,15.322177 37.1714561,15.7677493 37.1714561,16.2570194 C37.1714561,16.8423817 36.9275171,17.2901384 36.4396389,17.6002894 C36.0264868,17.8667733 35.5100391,18 34.8902957,18 C34.0112414,18 33.0706485,17.5740769 32.0685172,16.7222511 C31.2685779,16.0407762 30.5741187,15.2369863 29.9851395,14.3108916 L30.4004963,14.3108916 C30.7828944,14.9617853 31.4443847,15.5995726 32.3849776,16.2242537 C33.3739214,16.8795059 34.2266108,17.207132 34.9430357,17.2071422 C36.1253731,17.207132 36.7165469,16.8663996 36.7165469,16.1849451 C36.7165469,15.9577698 36.6000738,15.7371681 36.3671176,15.5231296 C36.1341716,15.3134395 35.90342,15.2085996 35.6748529,15.2085996 C35.3012634,15.2085996 34.9847929,15.3287301 34.7254718,15.5689913 M31.343182,11.6701929 C31.3080288,11.6964054 31.1739588,11.7095117 30.9410128,11.7095117 C30.8399218,11.7095117 30.3454499,11.1874862 29.4575971,10.1434453 C29.3829219,10.0605406 29.2488215,9.91192162 29.0554279,9.69786281 C28.9191735,9.54059781 28.8510514,9.38552734 28.8510514,9.23262094 C28.8510514,8.93557611 29.0422403,8.78705878 29.4246384,8.78704862 C29.6575845,8.78705878 29.9828332,8.79111258 30.4003947,8.80015488 L30.4003947,5.37969444 L27.8687014,5.37969444 L26.9654665,4.47544354 L36.8483004,4.47544354 L37.7515353,5.37969444 L35.4769686,5.37969444 L35.4769686,13.8718724 L34.2704609,12.6727408 L34.2704609,9.9272021 L31.4618598,9.9272021 C31.4618598,10.4252096 31.4659237,10.8664132 31.4750676,11.2508331 C31.4791316,11.460513 31.4355456,11.600303 31.3432024,11.6701929 M34.2704812,5.37969444 L31.4618801,5.37969444 L31.4618801,8.80015488 L34.2704812,8.80015488 L34.2704812,5.37969444 M8.84125165,5.37975539 L7.93801674,4.4755045 L20.2602513,4.4755045 L21.1634862,5.37975539 L15.0649996,5.37975539 L15.0649996,7.90250791 C15.1968547,7.78457186 15.2935464,7.7037499 15.3550951,7.66006236 C15.5045268,7.55085366 15.651764,7.47660515 15.7968168,7.4372762 C16.0956904,7.35437146 16.3747929,7.31277686 16.6341241,7.31277686 C17.3065974,7.31277686 17.8626078,7.54649506 18.3021451,8.01390099 C18.7416621,8.47695849 18.9614308,9.04704031 18.9614409,9.7241363 C18.9614308,10.2658212 18.7680372,10.7769248 18.3812602,11.2574472 C18.0911546,11.6287507 17.6362453,11.9389221 17.0165121,12.1879106 L16.5352277,11.2574472 C17.1593602,10.9691297 17.5769115,10.7419748 17.7878919,10.5759723 C18.253784,10.2134063 18.48673,9.81586998 18.4867402,9.38340393 C18.48673,8.99462542 18.3043295,8.642961 17.9395283,8.328431 C17.7065721,8.13186752 17.3439553,8.0575987 16.8516881,8.10564484 C16.6187319,8.12748861 16.3330357,8.28038486 15.9946096,8.56432342 C15.6605625,8.84390339 15.3506857,9.18682013 15.0649996,9.59307366 L15.0649996,13.8719334 L13.9705758,12.7710987 L13.9705758,10.8642898 C13.7815713,11.0739697 13.5024689,11.2552527 13.1332685,11.4081489 C12.7640579,11.5566764 12.4322154,11.6309452 12.1377309,11.6309452 C11.5004109,11.6309452 10.9553935,11.414702 10.5026788,10.982236 C10.0543532,10.5497699 9.83019543,10.0168225 9.83019543,9.38340393 C9.83019543,8.73688922 10.0433703,8.20394181 10.46971,7.78457186 C10.8960598,7.36083316 11.4344834,7.14896888 12.0849909,7.14895872 C12.9112951,7.14896888 13.5398268,7.49843876 13.9705758,8.19737852 L13.9705758,8.59708908 C13.5837785,8.25635671 13.1398521,8.08598544 12.6387966,8.08597528 C11.9970773,8.08598544 11.5004109,8.21049494 11.1487871,8.45947331 C10.6652981,8.80021584 10.4015879,9.25453583 10.3576362,9.82242311 C10.3312205,10.1806407 10.4301778,10.468948 10.6543152,10.6873654 C10.8389205,10.8621054 11.0938424,10.9494703 11.4191013,10.9494703 C11.8849934,10.9494703 12.4190279,10.7135779 13.0211845,10.2417931 C13.6541053,9.74379569 13.9705657,9.26764209 13.9705758,8.8133221 L13.9705758,5.37975539 L8.84125165,5.37975539 M5.08976154,10.2352399 C5.14686014,10.1915524 5.36006552,9.99934751 5.72927607,9.65861514 C5.92266966,9.44455633 6.01936137,8.97495586 6.01937153,8.24980358 L6.01937153,5.37975539 L2.95364379,5.37975539 L2.95364379,9.64550888 C2.95364379,10.2614525 3.13824907,10.7004716 3.50744946,10.9625766 L6.9094189,13.3608196 C7.18191742,13.5530346 7.45003703,13.7496184 7.7137574,13.9505608 C7.98625592,14.2126556 8.12251026,14.5031676 8.12252042,14.8220562 C8.12251026,15.0754135 7.98186685,15.3571779 7.70056986,15.6673391 C7.5774929,15.8464479 7.40388063,15.9862379 7.17973304,16.0867091 L6.51384342,15.4576592 C6.72481362,15.4096029 6.91161344,15.2938411 7.07424286,15.1103737 C7.23686213,14.9312649 7.31597722,14.7368757 7.31158815,14.5271856 C7.30752419,14.4179769 7.24788561,14.2978463 7.13357664,14.1667939 C7.10716092,14.1362126 6.97754099,14.0379258 6.74459494,13.8719334 L3.37559435,11.4671271 C3.22175324,11.3666457 2.93826171,11.1700721 2.52510961,10.877396 C2.30094171,10.7113935 2.14271152,10.5148097 2.05040888,10.2876548 C1.94052962,10.0211913 1.88558492,9.66297373 1.88558492,9.2130225 L1.88558492,5.37975539 L0.909828682,5.37975539 L0,4.4755045 L8.46535589,4.4755045 L9.3685908,5.37320226 L7.11379533,5.3792982 L7.11379533,8.46556925 C7.10973137,8.92425799 7.08301085,9.23878799 7.03464975,9.40913894 C6.95113542,9.70619392 6.76432545,9.97703638 6.47424015,10.2216663 L5.42596259,11.106268 L4.7996356,10.4772181 C4.84799669,10.4335306 4.94467825,10.3527289 5.0897209,10.2347726" id="wikipedia-tagline-hi" fill="#000000" fill-rule="nonzero"></path>
    </g>
</svg>

<svg xmlns="http://www.w3.org/2000/svg" width="108" height="18"><path fill="#000" fill-rule="nonzero" d="m96.8 5.37-.884-.89h2.27c-.27.292-.458.589-.56.89H96.8Zm4.03 2.612c-.326.266-.771.4-1.335.4a1.6 1.6 0 0 1-1.167-.665c-.28-.365-.419-.797-.419-1.296 0-.533.15-1 .451-1.4.327-.438.749-.661 1.264-.67.693-.008 1.31.48 1.851 1.464.215.395.334.89.355 1.483 0 .048-.008.213-.026.497-.081 1.208-.615 2.212-1.6 3.012l1.73 2.695-.285.226-1.89-2.734c-.274.133-.584.163-.928.09-.71-.155-1.064-.48-1.064-.974 0-.529.22-.84.658-.935.37 0 .53-.004.484-.013.184.026.371.133.56.322.04.04.103.127.19.265.089.137.133.223.133.258.692-.323 1.038-.998 1.038-2.025Zm-1.335-3.14c-.451.007-.677.382-.677 1.121 0 .327.063.652.187.974.228.593.615.89 1.161.89.353-.073.529-.4.529-.98 0-.499-.08-.931-.239-1.297-.21-.481-.53-.718-.96-.709Zm2.232.528a2.85 2.85 0 0 0-.71-.89h5.708l.896.89h-2.225v8.358l-1.057-1.083V5.37h-2.612Zm-8.211.01h-.983l-.91-.905h4.325l.904.905h-2.255v8.492l-1.081-1.088V5.38m.745-.905c-.348-.533-.627-.939-.838-1.218-.874-1.167-1.38-1.824-1.516-1.973C91.129.428 90.417 0 89.77 0c-.466 0-1.009.092-1.629.275l1.2 1.212c.418-.06.721-.091.91-.091.611 0 1.305.375 2.083 1.127a8.616 8.616 0 0 1 1.53 1.952h.396m-13.589.905-.903-.905h12.322l.904.905h-6.099v2.522c.132-.117.229-.198.29-.242.15-.11.297-.183.442-.223.299-.083.578-.124.837-.124.673 0 1.229.233 1.668.7.44.464.66 1.034.66 1.711 0 .542-.194 1.053-.58 1.533-.29.372-.746.682-1.365.93l-.482-.93c.624-.288 1.042-.515 1.253-.681.466-.363.699-.76.699-1.193 0-.388-.183-.74-.547-1.055-.233-.196-.596-.27-1.088-.222-.233.021-.519.174-.857.458-.334.28-.644.623-.93 1.029v4.279l-1.094-1.101v-1.907c-.19.21-.468.391-.838.544-.369.149-.7.223-.995.223a2.282 2.282 0 0 1-1.635-.649 2.134 2.134 0 0 1-.673-1.599c0-.646.213-1.18.64-1.598.426-.424.965-.636 1.615-.636.826 0 1.455.35 1.886 1.048v.4a1.956 1.956 0 0 0-1.332-.511c-.642 0-1.138.124-1.49.373-.484.341-.747.795-.791 1.363-.027.359.072.647.296.865.185.175.44.262.765.262.466 0 1-.235 1.602-.707.633-.498.95-.974.95-1.429V5.38h-5.13m-7.028 3.977c-.307-.384-.461-.71-.461-.976 0-.459.178-.712.534-.76h4.173V5.38h-5.703l-.903-.905h9l.903.905h-2.242v8.492l-1.055-1.035V8.649h-2.776v1.468c-.026.25-.1.402-.224.459a.65.65 0 0 1-.468-.25l-.778-.969M69.768 5.38h-.983l-.91-.905H72.2l.904.905h-2.255v8.492l-1.081-1.088V5.38m-3.429 0h-7.351l-.91-.905h7.351l.91.905m-.923 2.588h-3.257c.202.074.538.293 1.009.655.532.407.852.73.962.97.084.18.126.384.126.616 0 .446-.176.852-.528 1.219-.351.367-.751.583-1.2.648l.686 1.645-.402.413-.798-1.9c-.171.052-.37.078-.593.078-.387 0-.717-.109-.99-.327a1.121 1.121 0 0 1-.441-.918c0-.65.314-.983.943-.996.312-.009.578.099.798.321.162.166.27.356.323.57.254 0 .476-.1.665-.3.194-.202.29-.429.29-.682 0-.437-.13-.736-.388-.898l-2.539-1.599V6.96h5.334v1.009m0-2.588h-.719l-.896-.905h4.16l.903.905H66.65v8.492l-1.233-1.225V5.38M44.951 8.55v5.308l-1.094-1.094V8.466h-2.163c-.545 0-.976.135-1.292.406-.343.289-.514.7-.514 1.232 0 .721.263 1.409.79 2.064 0 0 .498.568 1.49 1.704h-.434a9.572 9.572 0 0 1-1.952-1.815c-.677-.843-1.015-1.625-1.015-2.346 0-.441.189-.856.567-1.245h-1.009l-1.081-1.088h6.613V5.38h-6.633l-.91-.905h14.71l.902.905h-6.975v2.123c.281-.013.593-.018.936-.013.36.004.807.026 1.339.065.703.157 1.246.435 1.628.832.519.542.778 1.162.778 1.861 0 .573-.204 1.22-.613 1.94-.198.345-.558.9-1.081 1.664l-.97-.937c.33-.244.768-.611 1.313-1.1.54-.603.81-1.182.81-1.737 0-.459-.182-.845-.547-1.16-.351-.301-.925-.472-1.72-.511-.365-.017-.99.03-1.873.144M34.725 15.57l-.777-.806c.487-.376 1.013-.55 1.575-.524.475.022.875.249 1.2.681.299.402.448.848.448 1.337 0 .585-.243 1.033-.731 1.343-.414.267-.93.4-1.55.4-.879 0-1.82-.426-2.821-1.278a10.652 10.652 0 0 1-2.084-2.411h.415c.383.65 1.044 1.289 1.985 1.913.989.656 1.842.983 2.558.983 1.182 0 1.774-.34 1.774-1.022 0-.227-.117-.448-.35-.662-.233-.21-.464-.314-.692-.314-.374 0-.69.12-.95.36m-3.382-3.899c-.035.026-.169.04-.402.04-.101 0-.596-.523-1.483-1.567l-.403-.445c-.136-.157-.204-.312-.204-.465 0-.297.191-.446.574-.446.233 0 .558.004.975.013V5.38H27.87l-.904-.905h9.883l.904.905h-2.275v8.492l-1.207-1.2V9.928h-2.808c0 .498.004.94.013 1.324.004.21-.04.35-.132.42M34.27 5.38h-2.808V8.8h2.808V5.38m-25.429 0-.903-.904H20.26l.903.904h-6.098v2.523c.132-.118.229-.2.29-.243.15-.11.297-.183.442-.223.299-.083.578-.124.837-.124.673 0 1.229.233 1.668.7.44.464.66 1.034.66 1.711 0 .542-.194 1.053-.58 1.533-.29.372-.746.682-1.365.93l-.482-.93c.624-.288 1.042-.515 1.253-.681.466-.363.699-.76.699-1.193 0-.388-.183-.74-.547-1.055-.233-.196-.596-.27-1.088-.222-.233.021-.519.174-.857.458-.334.28-.644.623-.93 1.03v4.278l-1.094-1.1v-1.908c-.19.21-.469.391-.838.544-.369.149-.7.223-.995.223a2.282 2.282 0 0 1-1.635-.649 2.134 2.134 0 0 1-.673-1.599c0-.646.213-1.18.64-1.598.426-.424.964-.636 1.615-.636.826 0 1.455.35 1.886 1.048v.4a1.956 1.956 0 0 0-1.332-.511c-.642 0-1.139.124-1.49.373-.484.341-.747.796-.791 1.363-.027.359.072.647.296.865.185.175.44.262.765.262.466 0 1-.235 1.602-.707.633-.498.95-.974.95-1.429V5.38H8.84M5.09 10.235c.057-.043.27-.236.64-.576.193-.214.29-.684.29-1.41V5.38H2.953v4.267c0 .615.184 1.054.553 1.317L6.91 13.36c.273.192.541.389.805.59.272.262.409.552.409.871 0 .253-.141.535-.422.845-.124.18-.297.32-.521.42l-.666-.63c.21-.047.398-.163.56-.347a.825.825 0 0 0 .238-.583c-.004-.109-.064-.23-.178-.36a4.042 4.042 0 0 0-.39-.295l-3.368-2.405a33.16 33.16 0 0 1-.85-.59 1.38 1.38 0 0 1-.476-.59c-.11-.266-.164-.624-.164-1.074V5.38H.91L0 4.476h8.465l.904.897-2.255.006v3.087c-.004.458-.031.773-.08.943-.083.297-.27.568-.56.813l-1.048.884-.626-.629c.048-.043.145-.124.29-.242"/></svg>
